X:1
T:Title
%%score { ( 1 3 ) | ( 2 4 ) }
L:1/8
Q:1/4=92
M:6/8
K:Db
V:1 treble nm="Grand Piano"
V:3 treble 
V:2 bass 
V:4 bass 
V:1
 FFF [EG][DF][CEG] | [GB]3 A3 | [DFA][Fd]c edB | [DFA]6 | [CEG][DF][EG] [CE][DF][EG] | B3 A3 | %6
w: G.~Tabor~Thompson * * * * *||||||
 =GBd cAB |[M:7/8] [A,CA]3 [EG]3 z |[M:3/4] FD FA FA | B3 d3 | F<F F A2 F | [A,CE]6 | %12
w: ||||||
 DF A d2 [E=Ac]/[EAc]/ | [Be]3 B3 | Ac BA [D=GB][E_Gc] |[M:7/4] [DFd]6 z2 z2 z4 | %16
w: ||||
[M:3/4] DF A d2 [E=Ac]/[EAc]/ | [GBe][GBe] [GBe][DGB] [GB][GB] | %18
w: ||
 [A,CGA][EGc] [EGB][CA] [D=GB][E_Gc] | [DFd][DFd] [DFd] .[DFd]3 |] %20
w: ||
V:2
 [D,A,D][D,A,D][D,A,D] [A,,A,][A,,A,]A,, | z3 F3 | D,[D,A,][F,=A,F] [G,B,G][G,B,G][G,DG] | D,6 | %4
 A,,[A,,A,][A,,A,] [A,,A,][A,,A,][A,,A,] | [D,G,D]3 [D,F,D]3 | %6
 [E,B,D][E,B,D][E,B,D] [E,A,E][E,A,C][E,=G,D] |[M:7/8] z z2 C3 z |[M:3/4] F,D, F,A, F,A, | %9
 [G,DG]3 [G,B,D]3 | [D,A,D]<[D,A,D] [D,A,D] [F,A,D]2 [D,A,D] | A,,6 | D,F, A, D2 F,/F,/ | %13
 [G,D]3[K:treble] [G,DG]3 | [A,CG][A,EG] [A,EG][K:bass][G,C] E,A,, |[M:7/4] D,6 z2 z2 z4 | %16
[M:3/4] D,F, A, D2 [F,,F,]/[F,,F,]/ | [G,,G,][G,B,D] .[G,B,D]2 DD | A,,A, A,G, E,[A,,A,] | %19
 [D,,D,]A,, F,, .D,,3 |] %20
V:3
 x6 | D6 | x6 | x6 | x6 | x6 | x6 |[M:7/8] x7 |[M:3/4] x6 | x6 | x6 | x6 | x6 | x6 | x6 | %15
[M:7/4] x14 |[M:3/4] x6 | x6 | x6 | x6 |] %20
V:4
 x6 | D,6 | x6 | x6 | x6 | x6 | x6 |[M:7/8] A,,-A,,-A,,- A,,3 z |[M:3/4] x6 | x6 | x6 | x6 | x6 | %13
 x3[K:treble] x3 | x3[K:bass] x3 |[M:7/4] x14 |[M:3/4] x6 | z2 z [G,,G,]3 | x6 | x6 |] %20

